static/assets/img/icons/theme/home/alarm-clock.svg

<svg height="24" viewBox="0 0 24 24" width="24" xmlns="http://www.w3.org/2000/svg"><g fill="none" fill-rule="evenodd"><path d="m0 0h24v24h-24z" opacity="0"/><g fill="#000"><path d="m7.14319965 19.3575259c.52802178.4039916 1.10784444.7436906 1.72777567 1.0074048l-.97892467 1.6955472c-.27614237.4782927-.88773278.6421678-1.3660254.3660254-.47829262-.2761423-.64216778-.8877327-.3660254-1.3660254zm7.99350885 1.0041314c.6196365-.2643578 1.1991113-.6046612 1.7267301-1.0092158l.9686126 1.6776863c.2761424.4782926.1122672 1.089883-.3660254 1.3660254s-1.089883.1122672-1.3660254-.3660254z"/><path d="m12 21c-4.418278 0-8-3.581722-8-8s3.581722-8 8-8 8 3.581722 8 8-3.581722 8-8 8zm7.068812-17.74592407 1.7493224 1.7493224c.5857864.58578644.5857864 1.53553391 0 2.12132035-.5857865.58578644-1.5355339.58578644-2.1213204 0l-1.7493224-1.74932241c-.5857864-.58578643-.5857864-1.5355339 0-2.12132034.5857865-.58578644 1.5355339-.58578644 2.1213204 0zm-13.77018294-.37199794c.58578644-.58578644 1.53553391-.58578644 2.12132035 0s.58578644 1.53553391 0 2.12132034l-2.12132035 2.12132035c-.58578643.58578644-1.5355339.58578644-2.12132034 0s-.58578644-1.53553391 0-2.12132035z" opacity=".3"/><path d="m11.9630156 7.5h.0844906c.2568757 0 .4719585.19464724.4975186.45024814l.4549752 4.54975186 3.2480695 1.8560397c.1557875.0890214.2519305.2546931.2519305.4341216v.2098387c0 .2109164-.1709815.3818979-.3818979.3818979-.0339439 0-.0677362-.0045254-.100484-.0134566l-4.6189569-1.2597155c-.2313788-.0631033-.3853626-.2816072-.3669686-.5207302l.4327957-5.62634385c.0200384-.26049858.2372591-.46165175.4985273-.46165175z"/></g></g></svg>

<svg width="24px" height="24px" viewBox="0 0 24 24" version="1.1" xmlns="http://www.w3.org/2000/svg" xmlns:xlink="http://www.w3.org/1999/xlink">
    <title>Icon For Alarm-clock</title>
    <g stroke="none" stroke-width="1" fill="none" fill-rule="evenodd">
        <rect opacity="0" x="0" y="0" width="24" height="24"></rect>
        <path d="M7.14319965,19.3575259 C7.67122143,19.7615175 8.25104409,20.1012165 8.87097532,20.3649307 L7.89205065,22.0604779 C7.61590828,22.5387706 7.00431787,22.7026457 6.52602525,22.4265033 C6.04773263,22.150361 5.88385747,21.5387706 6.15999985,21.0604779 L7.14319965,19.3575259 Z M15.1367085,20.3616573 C15.756345,20.0972995 16.3358198,19.7569961 16.8634386,19.3524415 L17.8320512,21.0301278 C18.1081936,21.5084204 17.9443184,22.1200108 17.4660258,22.3961532 C16.9877332,22.6722956 16.3761428,22.5084204 16.1000004,22.0301278 L15.1367085,20.3616573 Z" fill="#000000"></path>
        <path d="M12,21 C7.581722,21 4,17.418278 4,13 C4,8.581722 7.581722,5 12,5 C16.418278,5 20,8.581722 20,13 C20,17.418278 16.418278,21 12,21 Z M19.068812,3.25407593 L20.8181344,5.00339833 C21.4039208,5.58918477 21.4039208,6.53893224 20.8181344,7.12471868 C20.2323479,7.71050512 19.2826005,7.71050512 18.696814,7.12471868 L16.9474916,5.37539627 C16.3617052,4.78960984 16.3617052,3.83986237 16.9474916,3.25407593 C17.5332781,2.66828949 18.4830255,2.66828949 19.068812,3.25407593 Z M5.29862906,2.88207799 C5.8844155,2.29629155 6.83416297,2.29629155 7.41994941,2.88207799 C8.00573585,3.46786443 8.00573585,4.4176119 7.41994941,5.00339833 L5.29862906,7.12471868 C4.71284263,7.71050512 3.76309516,7.71050512 3.17730872,7.12471868 C2.59152228,6.53893224 2.59152228,5.58918477 3.17730872,5.00339833 L5.29862906,2.88207799 Z" fill="#000000" opacity="0.3"></path>
        <path d="M11.9630156,7.5 L12.0475062,7.5 C12.3043819,7.5 12.5194647,7.69464724 12.5450248,7.95024814 L13,12.5 L16.2480695,14.3560397 C16.403857,14.4450611 16.5,14.6107328 16.5,14.7901613 L16.5,15 C16.5,15.2109164 16.3290185,15.3818979 16.1181021,15.3818979 C16.0841582,15.3818979 16.0503659,15.3773725 16.0176181,15.3684413 L11.3986612,14.1087258 C11.1672824,14.0456225 11.0132986,13.8271186 11.0316926,13.5879956 L11.4644883,7.96165175 C11.4845267,7.70115317 11.7017474,7.5 11.9630156,7.5 Z" fill="#000000"></path>
    </g>
</svg>
